lib/svgs/normal.svg

<svg xmlns="http://www.w3.org/2000/svg" viewBox="0 0 20 20">
    <path fill="#000" fill-rule="evenodd" d="M10.0001,18.0002 C9.8791,18.0002 9.7671,18.0002 9.6461,17.9892 C5.3701,17.8172 2.0001,14.3072 2.0001,10.0002 C2.0001,5.5892 5.5891,2.0002 10.0001,2.0002 C14.2461,2.0002 17.7561,5.3202 17.9911,9.5582 C18.0001,9.7052 18.0001,9.8522 18.0001,10.0002 C18.0001,14.4112 14.4111,18.0002 10.0001,18.0002 L10.0001,18.0002 L10.0001,18.0002 Z M10.0001,3.2002 C6.2501,3.2002 3.2001,6.2502 3.2001,10.0002 C3.2001,13.6612 6.0641,16.6442 9.7201,16.7922 C9.8331,16.8012 9.9141,16.8002 10.0001,16.8012 C13.7501,16.8012 16.8001,13.7502 16.8001,10.0002 C16.8001,9.8752 16.8001,9.7512 16.7931,9.6262 C16.5931,6.0222 13.6091,3.2002 10.0001,3.2002 L10.0001,3.2002 L10.0001,3.2002 L10.0001,3.2002 Z M7.9464,9.2839 C7.5144,9.2839 7.0854,9.1089 6.7744,8.7629 C6.4944,8.4499 6.3514,8.0469 6.3744,7.6279 C6.3974,7.2079 6.5814,6.8219 6.8944,6.5409 C7.2074,6.2609 7.6054,6.1229 8.0294,6.1409 C8.4494,6.1639 8.8354,6.3479 9.1154,6.6609 C9.6954,7.3059 9.6414,8.3029 8.9964,8.8819 L8.9964,8.8829 C8.6964,9.1519 8.3204,9.2839 7.9464,9.2839 L7.9464,9.2839 L7.9464,9.2839 Z M7.9454,7.3389 C7.8564,7.3389 7.7674,7.3699 7.6954,7.4339 C7.6214,7.5009 7.5774,7.5919 7.5724,7.6919 C7.5674,7.7909 7.6014,7.8869 7.6674,7.9609 C7.7344,8.0349 7.8254,8.0789 7.9254,8.0849 C8.0234,8.0799 8.1194,8.0559 8.1944,7.9899 C8.3474,7.8519 8.3604,7.6149 8.2224,7.4629 C8.1494,7.3809 8.0474,7.3389 7.9454,7.3389 L7.9454,7.3389 L7.9454,7.3389 Z M12.0553,13.86 C11.6233,13.86 11.1943,13.685 10.8843,13.339 C10.6033,13.027 10.4613,12.623 10.4833,12.204 C10.5063,11.784 10.6903,11.398 11.0033,11.118 C11.6483,10.539 12.6443,10.59 13.2253,11.237 C13.8043,11.883 13.7513,12.88 13.1053,13.459 L13.1053,13.46 C12.8053,13.728 12.4293,13.86 12.0553,13.86 L12.0553,13.86 L12.0553,13.86 Z M12.0543,11.915 C11.9653,11.915 11.8763,11.947 11.8053,12.011 C11.6523,12.148 11.6393,12.384 11.7773,12.538 C11.9153,12.691 12.1523,12.704 12.3043,12.566 C12.4573,12.428 12.4703,12.192 12.3323,12.039 C12.2593,11.957 12.1573,11.915 12.0543,11.915 L12.0543,11.915 L12.0543,11.915 Z M8.4381,14.3662 C8.3611,14.3662 8.2831,14.3502 8.2081,14.3202 C7.9021,14.1922 7.7571,13.8422 7.8841,13.5362 L11.0081,6.0042 C11.1351,5.6982 11.4851,5.5522 11.7921,5.6802 C12.0981,5.8072 12.2431,6.1582 12.1161,6.4642 L8.9921,13.9952 C8.8961,14.2262 8.6731,14.3662 8.4381,14.3662 L8.4381,14.3662 L8.4381,14.3662 Z"/>
</svg>

<svg xmlns="http://www.w3.org/2000/svg" viewBox="0 0 20 20">
    <path fill="#000" fill-rule="evenodd" d="M10 18c-.12 0-.233 0-.354-.01A7.968 7.968 0 0 1 2 10a8.005 8.005 0 1 1 16 0c0 4.411-3.589 8-8 8m0-14.8c-3.75 0-6.8 3.05-6.8 6.8a6.778 6.778 0 0 0 6.52 6.792c.113.01.194.008.28.01 3.75 0 6.8-3.052 6.8-6.802 0-.125 0-.249-.007-.374A6.805 6.805 0 0 0 10 3.2M7.946 9.284A1.57 1.57 0 1 1 8.03 6.14a1.574 1.574 0 0 1 .967 2.741c-.3.27-.676.402-1.05.402m0-1.945a.374.374 0 0 0-.374.353.375.375 0 0 0 .353.393.428.428 0 0 0 .27-.095.373.373 0 0 0-.25-.651m4.11 6.521a1.565 1.565 0 0 1-1.572-1.656 1.575 1.575 0 1 1 2.622 1.255v.001c-.3.268-.676.4-1.05.4m0-1.945a.373.373 0 1 0 0 0m-3.617 2.451a.6.6 0 0 1-.554-.83l3.124-7.532a.599.599 0 1 1 1.108.46l-3.124 7.531a.6.6 0 0 1-.554.371"/>
</svg>
